packages/foundations/assets/icons/functional/images/logos/subway_32.svg

<svg width="32" height="32" viewBox="0 0 32 32" fill="none" xmlns="http://www.w3.org/2000/svg">
<g clip-path="url(#clip0_185_1722)">
<path fill-rule="evenodd" clip-rule="evenodd" d="M25 2C27.6888 2 30 4.16409 30 7V25C30 27.6888 27.8374 30 25 30H7C4.31125 30 2 27.8337 2 25V7C2 4.31125 4.16328 2 7 2H25ZM7 4C5.40232 4 4 5.28374 4 7V25C4 26.5977 5.34813 28 7 28H25C26.5977 28 28 26.7427 28 25V7C28 5.40232 26.7123 4 25 4H7ZM13.2 8V17.8126C13.2 19.6046 14.4198 20.8 15.999 20.8C17.5219 20.8 18.7114 19.6885 18.7944 18.0023L18.799 8H22.799V18.177C22.799 22.4409 19.608 24 15.999 24C12.4652 24 9.33404 22.5016 9.20511 18.4398L9.20098 8H13.2Z" fill="#1A1C1F"/>
</g>
<defs>
<clipPath id="clip0_185_1722">
<rect width="32" height="32" fill="white"/>
</clipPath>
</defs>
</svg>

<svg xmlns="http://www.w3.org/2000/svg" width="32" height="32" fill="none"><g clip-path="url(#a)"><path fill="#1A1C1F" fill-rule="evenodd" d="M25 2c2.689 0 5 2.164 5 5v18c0 2.689-2.163 5-5 5H7c-2.689 0-5-2.166-5-5V7c0-2.689 2.163-5 5-5zM7 4C5.402 4 4 5.284 4 7v18c0 1.598 1.348 3 3 3h18c1.598 0 3-1.257 3-3V7c0-1.598-1.288-3-3-3zm6.2 4v9.813c0 1.792 1.22 2.987 2.799 2.987 1.523 0 2.712-1.111 2.795-2.798L18.8 8h4v10.177c0 4.264-3.191 5.823-6.8 5.823-3.534 0-6.665-1.498-6.794-5.56L9.201 8z" clip-rule="evenodd"/></g><defs><clipPath id="a"><path fill="#fff" d="M0 0h32v32H0z"/></clipPath></defs></svg>
